X:1
L:1/8
M:4/4
K:D
|: A | ded dAF | GBA ABc | ded dAF | Eee e2 f | ded dAF | GBA A ag | fef dBA | Bdd d2 :: A | 
 dfa afd | cde ecA | dfa afd | faa a2 A | dfa afd | cde eag |{a} fef dBA | Bdd d2 :: (3A/B/c/ | 
 dAF dAF | ABA ABc | dAF dAF | Eee e2 f | dAF dAF | ABA A ag |{a} fef dBA | Bdd d2 :|
